X: 21141
T: JOHN ANDERSON MY JOE
Q: "Slow and Solemn."
%R: air, reel
B: "Edinburgh Repository of Music" v.1 p.114 #1
F: http://digital.nls.uk/special-collections-of-printed-music/pageturner.cfm?id=87776133
Z: 2015 John Chambers <jc:trillian.mit.edu>
M: C|
L: 1/8
K: Am
AG |\
E2A2 A2B2 | c4 c2dc | B3A G2^F2 | G6 AG |\
E2A2 A2B2 | c2B2 c2d2 | e3d c2d2 | e6 g>f |
e3d c2d2 | e3f g2fe | d3c B2c2 | d6 cd |\
e3c {e}d2cB | {d}c2BA e3AG | E2A2 A2^G2 | A6 |]
